X:1
T:Title
%%score { 1 | 2 } 3
L:1/8
Q:1/4=80
M:3/4
K:G
V:1 treble nm="Grand Piano, Soprano"
V:2 treble 
V:3 bass nm="Choir Pad, Dulciana"
V:1
 dB B B2 G- | Gc BB A2- | A d2 c BA | d c2 B Ad | dB B B2 G- | Gc BB A2- | A d2 c BA | d c2 B Ad | %8
w: By~Joseph~C.~Embry~&~John~T.~Layton,~1897 * * * *||||||||
 de e e2 d- | dB B .B3 | dB G c2 B- | BA A .A3 | GB B B2 G- | Gd d d3- | d d2 c BA | d c2 B AG- | %16
w: ||||||||
 G4 z2 |] %17
w: |
V:2
 GG G G2 D- | DG GG F2- | F F2 E DC | F F2 D CB, | GG G G2 D- | DG GG F2- | F F2 E DC | %7
 F F2 D CB, | GG G G2 G- | GG G .G3 | GG z G2 G- | GF F .F3 | z G G .G3 | z G G G3- | G F2 E DC | %15
 F E2 D CB,- | B,4 z2 |] %17
V:3
 [G,B,][G,D] [G,D] [G,D]2 [G,B,]- | [G,B,][G,E] [G,D][G,D] [D,D]2- | %2
 [D,D] [D,A,]2 [D,A,] [D,G,][D,F,] | [D,A,] [D,A,]2 [D,G,] [D,F,][G,,G,] | %4
 [G,B,][G,D] [G,D] [G,D]2 [G,B,]- | [G,B,][G,E] [G,D][G,D] [D,D]2- | %6
 [D,D] [D,A,]2 [D,A,] [D,G,][D,F,] | [D,A,] [D,A,]2 [D,G,] [D,F,][G,,G,] | %8
 [G,B,][G,C] [G,C] [G,C]2 [G,B,]- | [G,B,][G,D] [G,D] .[G,D]3 | [G,B,][G,D] [G,B,] [G,E]2 [G,D]- | %11
 [G,D][D,D] [D,D] .[D,D]3 | [G,B,][G,D] [G,D] [G,D]2 [G,B,]- | [G,B,][G,B,] [G,B,] [G,B,]3- | %14
 [G,B,] [D,A,]2 [D,A,] [D,F,][D,A,] | [D,A,] [D,A,]2 [D,G,] [D,F,][G,,G,]- | [G,,G,]4 z2 |] %17

